assets/img/apply_arrow.svg

<?xml version="1.0" encoding="UTF-8" standalone="no"?>
<svg width="20px" height="20px" viewBox="0 0 20 20" version="1.1" xmlns="http://www.w3.org/2000/svg">
  <path d="M10,20 C4.48837209,20 0,15.5116279 0,10 C0,4.48837209 4.48837209,0 10,0 C15.5116279,0 20,4.48837209 20,10 C20,15.5116279 15.5116279,20 10,20 Z M10,1.39534884 C5.25581395,1.39534884 1.39534884,5.25581395 1.39534884,10 C1.39534884,14.744186 5.25581395,18.6046512 10,18.6046512 C14.744186,18.6046512 18.6046512,14.744186 18.6046512,10 C18.6046512,5.25581395 14.744186,1.39534884 10,1.39534884 Z M10.7309751,5.63795185 C10.4519053,5.8937658 10.4286495,6.33562627 10.7077193,6.61469604 L13.3588821,9.28911464 L4.98678906,9.28911464 C4.59144022,9.28911464 4.28911464,9.59144022 4.28911464,9.98678906 C4.28911464,10.3821379 4.59144022,10.6844635 4.98678906,10.6844635 L13.3588821,10.6844635 L10.6844635,13.3356263 C10.4286495,13.614696 10.4286495,14.0100449 10.6844635,14.2891146 C10.9402774,14.5681844 11.3821379,14.5914402 11.6612077,14.3123705 L15.498417,10.4751612 C15.6379518,10.3356263 15.7077193,10.1728356 15.7077193,9.98678906 C15.7077193,9.80074255 15.6379518,9.61469604 15.498417,9.49841697 L11.6612077,5.66120766 C11.4053937,5.40539371 10.9867891,5.40539371 10.7309751,5.63795185 Z" stroke="none" fill="#27c8d2" fill-rule="nonzero"></path>
</svg>

<?xml version="1.0" encoding="UTF-8" standalone="no"?><svg width="20" height="20" viewBox="0 0 20 20" xmlns="http://www.w3.org/2000/svg"><path d="M10 20C4.488 20 0 15.512 0 10S4.488 0 10 0s10 4.488 10 10-4.488 10-10 10zm0-18.605c-4.744 0-8.605 3.86-8.605 8.605 0 4.744 3.86 8.605 8.605 8.605 4.744 0 8.605-3.86 8.605-8.605 0-4.744-3.86-8.605-8.605-8.605zm.731 4.243a.674.674 0 0 0-.023.977l2.65 2.674H4.988a.685.685 0 0 0-.698.698c0 .395.302.697.698.697h8.372l-2.675 2.652a.688.688 0 0 0 0 .953c.256.28.698.302.977.023l3.837-3.837a.67.67 0 0 0 .21-.488.633.633 0 0 0-.21-.489l-3.837-3.837a.683.683 0 0 0-.93-.023z" fill="#27c8d2"/></svg>
